flaticon/user-interface/delete.svg

<svg xmlns="http://www.w3.org/2000/svg" width="32" height="32" viewBox="0 0 24 24">
    <path d="M 0 0 L 0 24 L 24 24 L 24 0 Z M 23.1875 23.1875 L 0.8125 23.1875 L 0.8125 0.8125 L 23.1875 0.8125 Z M 23.1875 23.1875"/>
    <path d="M7.226562 19.527344L10.816406 19.527344 14.773438 15.570312C14.773438 15.570312 14.773438 15.570312 14.773438 15.566406 14.773438 15.566406 14.773438 15.566406 14.777344 15.566406L19.511719 10.832031C20.070312 10.269531 20.070312 9.359375 19.511719 8.800781L14.640625 3.925781C14.078125 3.367188 13.167969 3.367188 12.609375 3.925781L3.132812 13.402344C2.574219 13.960938 2.574219 14.871094 3.132812 15.433594zM13.183594 4.503906C13.425781 4.261719 13.820312 4.261719 14.0625 4.503906L18.9375 9.375C19.179688 9.617188 19.179688 10.011719 18.9375 10.253906L14.488281 14.707031 8.734375 8.953125zM3.707031 13.976562L8.160156 9.527344 13.910156 15.28125 10.480469 18.710938 7.5625 18.710938 3.707031 14.859375C3.464844 14.613281 3.464844 14.21875 3.707031 13.976562zM13.015625 19.117188C13.015625 19.34375 13.199219 19.527344 13.421875 19.527344L20.339844 19.527344C20.5625 19.527344 20.746094 19.34375 20.746094 19.117188 20.746094 18.894531 20.5625 18.710938 20.339844 18.710938L13.421875 18.710938C13.199219 18.710938 13.015625 18.894531 13.015625 19.117188zM13.015625 19.117188"/>
</svg>

<svg xmlns="http://www.w3.org/2000/svg" width="32" height="32" viewBox="0 0 24 24">
    <path d="M0 0v24h24V0zm23.188 23.188H.813V.813h22.375zm0 0"/>
    <path d="M7.227 19.527h3.59l3.956-3.957v-.004h.004l4.735-4.734a1.44 1.44 0 0 0 0-2.031L14.64 3.926a1.44 1.44 0 0 0-2.032 0l-9.476 9.476a1.44 1.44 0 0 0 0 2.032zm5.957-15.023a.622.622 0 0 1 .879 0l4.874 4.871a.622.622 0 0 1 0 .879l-4.449 4.453-5.754-5.754zm-9.477 9.473l4.453-4.45 5.75 5.754-3.43 3.43H7.562l-3.855-3.852a.627.627 0 0 1 0-.882zm0 0M13.016 19.117c0 .227.183.41.406.41h6.918a.408.408 0 0 0 0-.816h-6.918a.408.408 0 0 0-.406.406zm0 0"/>
</svg>
